src/icons/svg/acl.svg

<?xml version="1.0" encoding="UTF-8"?>
<svg width="40px" height="41px" viewBox="0 0 40 41" version="1.1" xmlns="http://www.w3.org/2000/svg"
>
    <path d="M40,11.3258427 L40,11.3258427 C40,12.2247191 39.5505618,12.6741573 38.6516854,12.6741573 L33.9325842,12.6741573 C33.0337078,12.6741573 32.5842696,12.2247191 32.5842696,11.3258427 L32.5842696,11.3258427 C32.5842696,10.4269663 33.0337078,9.97752808 33.9325842,9.97752808 L38.6516854,9.97752808 C39.5505618,9.97752808 40,10.4269663 40,11.3258427 Z"
          id="路径"></path>
    <path d="M40,28.0449438 L40,28.0449438 C40,28.9438202 39.5505618,29.3932584 38.6516854,29.3932584 L33.9325842,29.3932584 C33.0337078,29.3932584 32.5842696,28.9438202 32.5842696,28.0449438 L32.5842696,28.0449438 C32.5842696,27.1460674 33.0337078,26.6966292 33.9325842,26.6966292 L38.6516854,26.6966292 C39.5505618,26.6966292 40,27.1460674 40,28.0449438 Z"
          id="路径"></path>
    <path d="M7.41573034,28.0449438 L7.41573034,28.0449438 C7.41573034,28.9438202 6.96629214,29.3932584 6.06741574,29.3932584 L1.34831461,29.3932584 C0.449438202,29.3932584 0,28.9438202 0,28.0449438 L0,28.0449438 C0,27.1460674 0.449438202,26.6966292 1.34831461,26.6966292 L6.06741574,26.6966292 C6.96629214,26.6966292 7.41573034,27.1460674 7.41573034,28.0449438 Z"
          id="路径"></path>
    <path d="M7.41573034,11.3258427 L7.41573034,11.3258427 C7.41573034,12.2247191 6.96629214,12.6741573 6.06741574,12.6741573 L1.34831461,12.6741573 C0.449438202,12.6741573 0,12.2247191 0,11.3258427 L0,11.3258427 C0,10.4269663 0.449438202,9.97752808 1.34831461,9.97752808 L6.06741574,9.97752808 C6.96629214,9.97752808 7.41573034,10.4269663 7.41573034,11.3258427 Z"
          id="路径"></path>
    <path d="M20.1348314,0 L20.1348314,0 C21.0337078,0 21.483146,0.449438202 21.483146,1.34831461 L21.483146,6.06741574 C21.483146,6.96629214 21.0337078,7.41573034 20.1348314,7.41573034 L20.1348314,7.41573034 C19.2359551,7.41573034 18.7865169,6.96629214 18.7865169,6.06741574 L18.7865169,1.34831461 C18.7865169,0.449438202 19.2359551,0 20.1348314,0 Z"
          id="路径"></path>
    <path d="M20.1348314,15.4606742 L20.1348314,15.4606742 C21.0337078,15.4606742 21.483146,15.9101124 21.483146,16.8089888 L21.483146,21.5280898 C21.483146,22.4269662 21.0337078,22.8764044 20.1348314,22.8764044 L20.1348314,22.8764044 C19.2359551,22.8764044 18.7865169,22.4269662 18.7865169,21.5280898 L18.7865169,16.8089888 C18.7865169,15.9101124 19.2359551,15.4606742 20.1348314,15.4606742 Z"
          id="路径"></path>
    <path d="M20.1348314,32.7191012 L20.1348314,32.7191012 C21.0337078,32.7191012 21.483146,33.1685394 21.483146,34.0674158 L21.483146,38.7865168 C21.483146,39.6853932 21.0337078,40.1348314 20.1348314,40.1348314 L20.1348314,40.1348314 C19.2359551,40.1348314 18.7865169,39.6853932 18.7865169,38.7865168 L18.7865169,34.0674158 C18.7865169,33.1685394 19.2359551,32.7191012 20.1348314,32.7191012 Z"
          id="路径"></path>
    <path d="M8.04494382,24.5842696 C7.8960131,24.5842696 7.7752809,24.7050018 7.7752809,24.8539326 L7.7752809,31.235955 C7.7752809,31.3848858 7.8960131,31.505618 8.04494382,31.505618 L32.2247192,31.505618 C32.3736498,31.505618 32.494382,31.3848858 32.494382,31.235955 L32.494382,24.8539326 C32.494382,24.7050018 32.3736498,24.5842696 32.2247192,24.5842696 L8.04494382,24.5842696 Z M8.04494382,21.8876404 L32.2247192,21.8876404 C33.8629214,21.8876404 35.1910112,23.2157304 35.1910112,24.8539326 L35.1910112,31.235955 C35.1910112,32.8741574 33.8629214,34.2022472 32.2247192,34.2022472 L8.04494382,34.2022472 C6.40674158,34.2022472 5.07865168,32.8741574 5.07865168,31.235955 L5.07865168,24.8539326 C5.07865168,23.2157304 6.40674158,21.8876404 8.04494382,21.8876404 Z M8.04494382,7.86516854 C7.8960131,7.86516854 7.7752809,7.98590074 7.7752809,8.13483146 L7.7752809,14.5168539 C7.7752809,14.6657847 7.8960131,14.7865169 8.04494382,14.7865169 L32.2247192,14.7865169 C32.3736498,14.7865169 32.494382,14.6657847 32.494382,14.5168539 L32.494382,8.13483146 C32.494382,7.98590074 32.3736498,7.86516854 32.2247192,7.86516854 L8.04494382,7.86516854 Z M8.04494382,5.16853932 L32.2247192,5.16853932 C33.8629214,5.16853932 35.1910112,6.49662922 35.1910112,8.13483146 L35.1910112,14.5168539 C35.1910112,16.1550562 33.8629214,17.4831461 32.2247192,17.4831461 L8.04494382,17.4831461 C6.40674158,17.4831461 5.07865168,16.1550562 5.07865168,14.5168539 L5.07865168,8.13483146 C5.07865168,6.49662922 6.40674158,5.16853932 8.04494382,5.16853932 Z"
          id="形状"></path>
    <path d="M29.1578876,12.6634607 C29.6358192,12.6030981 30.0452276,12.2923121 30.2318532,11.8482026 C30.4184786,11.4040932 30.35396,10.8941516 30.0626068,10.5105169 C29.771344,10.1268666 29.2975172,9.92776542 28.8196404,9.98822472 C28.3417088,10.0485873 27.9323004,10.3593733 27.745675,10.8034828 C27.5590494,11.2475922 27.6235682,11.7575338 27.9149214,12.1411685 C28.206184,12.5248188 28.680011,12.72392 29.1578876,12.6634607 L29.1578876,12.6634607 Z M29.1578876,29.3825618 C29.6358192,29.3221992 30.0452276,29.0114132 30.2318532,28.5673038 C30.4184786,28.1231944 30.35396,27.6132526 30.0626068,27.229618 C29.771344,26.8459678 29.2975172,26.6468666 28.8196404,26.7073258 C28.3417088,26.7676884 27.9323004,27.0784744 27.745675,27.5225838 C27.5590494,27.9666934 27.6235682,28.476635 27.9149214,28.8602696 C28.206184,29.24392 28.680011,29.443021 29.1578876,29.3825618 L29.1578876,29.3825618 Z"
          id="形状"></path>
</svg>

<svg width="40" height="41" xmlns="http://www.w3.org/2000/svg"><path d="M40 11.326c0 .899-.45 1.348-1.348 1.348h-4.72c-.898 0-1.348-.45-1.348-1.348 0-.899.45-1.348 1.349-1.348h4.719c.899 0 1.348.449 1.348 1.348zM40 28.045c0 .899-.45 1.348-1.348 1.348h-4.72c-.898 0-1.348-.45-1.348-1.348 0-.899.45-1.348 1.349-1.348h4.719c.899 0 1.348.45 1.348 1.348zM7.416 28.045c0 .899-.45 1.348-1.349 1.348H1.348C.45 29.393 0 28.943 0 28.045c0-.899.45-1.348 1.348-1.348h4.72c.898 0 1.348.45 1.348 1.348zM7.416 11.326c0 .899-.45 1.348-1.349 1.348H1.348C.45 12.674 0 12.224 0 11.326c0-.899.45-1.348 1.348-1.348h4.72c.898 0 1.348.449 1.348 1.348zM20.135 0c.899 0 1.348.45 1.348 1.348v4.72c0 .898-.45 1.348-1.348 1.348-.899 0-1.348-.45-1.348-1.349V1.348C18.787.45 19.236 0 20.135 0zM20.135 15.46c.899 0 1.348.45 1.348 1.349v4.72c0 .898-.45 1.347-1.348 1.347-.899 0-1.348-.449-1.348-1.348V16.81c0-.899.449-1.348 1.348-1.348zM20.135 32.72c.899 0 1.348.449 1.348 1.347v4.72c0 .898-.45 1.348-1.348 1.348-.899 0-1.348-.45-1.348-1.348v-4.72c0-.898.449-1.348 1.348-1.348z"/><path d="M8.045 24.584a.27.27 0 0 0-.27.27v6.382c0 .149.121.27.27.27h24.18a.27.27 0 0 0 .27-.27v-6.382a.27.27 0 0 0-.27-.27H8.045zm0-2.696h24.18a2.966 2.966 0 0 1 2.966 2.966v6.382a2.966 2.966 0 0 1-2.966 2.966H8.045a2.966 2.966 0 0 1-2.966-2.966v-6.382a2.966 2.966 0 0 1 2.966-2.966zm0-14.023a.27.27 0 0 0-.27.27v6.382c0 .149.121.27.27.27h24.18a.27.27 0 0 0 .27-.27V8.135a.27.27 0 0 0-.27-.27H8.045zm0-2.696h24.18a2.966 2.966 0 0 1 2.966 2.966v6.382a2.966 2.966 0 0 1-2.966 2.966H8.045a2.966 2.966 0 0 1-2.966-2.966V8.135a2.966 2.966 0 0 1 2.966-2.966z"/><path d="M29.158 12.663a1.348 1.348 0 1 0-.338-2.675 1.348 1.348 0 0 0 .338 2.675zm0 16.72a1.348 1.348 0 1 0-.338-2.676 1.348 1.348 0 0 0 .338 2.676z"/></svg>
